Komodo/apps/scalable/liferea.svg

<?xml version="1.0" encoding="UTF-8" standalone="no"?>
<!-- Created with Inkscape (http://www.inkscape.org/) -->
<svg id="svg11037" xmlns:rdf="http://www.w3.org/1999/02/22-rdf-syntax-ns#" xmlns="http://www.w3.org/2000/svg" height="96" width="96" version="1.1" xmlns:cc="http://creativecommons.org/ns#" xmlns:xlink="http://www.w3.org/1999/xlink" xmlns:dc="http://purl.org/dc/elements/1.1/">
 <defs id="defs11039">
  <linearGradient id="linearGradient11642" y2="1046.1" gradientUnits="userSpaceOnUse" y1="962.62" gradientTransform="matrix(1.15 0 0 1.15 -7.1999 -150.65)" x2="48" x1="48">
   <stop id="stop2843" style="stop-color:#d4530d" offset="0"/>
   <stop id="stop2845" style="stop-color:#f7ad25" offset="1"/>
  </linearGradient>
  <clipPath id="clipPath3754">
   <path id="path3756" d="m-78 6c-3.324 0-6 2.676-6 6v72c0 3.324 2.676 6 6 6h72c3.324 0 6-2.676 6-6v-72c0-3.324-2.676-6-6-6h-72zm4 10a64 64 0 0 1 64 64h-12.812a51.2 51.2 0 0 0 -51.188 -51.188v-12.812zm0 21.562a42.423 42.423 0 0 1 42.438 42.438h-12.438a29.989 29.989 0 0 0 -30 -30v-12.438zm8.7812 24.875c4.8475 0 8.7812 3.9338 8.7812 8.7812 0 4.848-3.933 8.782-8.781 8.782-4.847 0-8.781-3.934-8.781-8.781 0-4.8475 3.9338-8.7812 8.7812-8.7812z" style="fill:#f00"/>
  </clipPath>
  <filter id="filter3762" width="1.24" y="-.12" x="-.12" height="1.24" color-interpolation-filters="sRGB">
   <feGaussianBlur id="feGaussianBlur3764" stdDeviation="3.2"/>
  </filter>
  <clipPath id="clipPath3775">
   <path id="path3777" d="m-84 16v12.8a51.2 51.2 0 0 1 51.2 51.2h12.8a64 64 0 0 0 -64 -64zm0 21.577v12.434a29.989 29.989 0 0 1 29.989 29.989h12.434a42.423 42.423 0 0 0 -42.423 -42.423zm8.7771 24.869c-4.847 0-8.777 3.929-8.777 8.777 0 4.847 3.93 8.777 8.777 8.777 4.8475 0 8.7771-3.9297 8.7771-8.7771 0-4.8475-3.9297-8.7771-8.7771-8.7771z" style="fill:#fff"/>
  </clipPath>
  <filter id="filter3787" color-interpolation-filters="sRGB">
   <feGaussianBlur id="feGaussianBlur3789" stdDeviation="0.42"/>
  </filter>
  <clipPath id="clipPath3009" clipPathUnits="userSpaceOnUse">
   <path id="path3011" style="opacity:.15;fill:#fff" d="m-2 956.36h-96v33.562l96 25.687v-59.25z"/>
  </clipPath>
 </defs>
 <metadata id="metadata11042">
  <rdf:RDF>
   <cc:Work rdf:about="">
    <dc:format>image/svg+xml</dc:format>
    <dc:type rdf:resource="http://purl.org/dc/dcmitype/StillImage"/>
    <dc:title/>
   </cc:Work>
  </rdf:RDF>
 </metadata>
 <g id="layer1" transform="translate(0 -956.36)">
  <rect id="rect3867" style="fill:url(#linearGradient11642)" rx="25" ry="25" height="92" width="92" y="958.36" x="2"/>
  <g id="layer3" transform="matrix(.81905 0 0 .81905 8.8055 965.03)">
   <path id="path3744" style="opacity:.4;filter:url(#filter3762);fill:#fff" d="m-74 16v12.8a51.2 51.2 0 0 1 51.2 51.2h12.8a64 64 0 0 0 -64 -64zm0 21.577v12.434a29.989 29.989 0 0 1 29.989 29.989h12.434a42.423 42.423 0 0 0 -42.423 -42.423zm8.7771 24.869c-4.847 0-8.777 3.929-8.777 8.777 0 4.847 3.93 8.777 8.777 8.777 4.8475 0 8.7771-3.9297 8.7771-8.7771 0-4.8475-3.9297-8.7771-8.7771-8.7771z" clip-path="url(#clipPath3754)" transform="translate(90)"/>
   <path id="circle3643" d="m16 16v12.8a51.2 51.2 0 0 1 51.2 51.2h12.8a64 64 0 0 0 -64 -64zm0 21.577v12.434a29.989 29.989 0 0 1 29.989 29.989h12.434a42.423 42.423 0 0 0 -42.423 -42.423zm8.7771 24.869c-4.847 0-8.777 3.929-8.777 8.777 0 4.847 3.93 8.777 8.777 8.777 4.8475 0 8.7771-3.9297 8.7771-8.7771 0-4.8475-3.9297-8.7771-8.7771-8.7771z" style="fill:#fff"/>
   <path id="rect3766" style="opacity:.8;filter:url(#filter3787)" d="m-88 6c-3.324 0-6 2.676-6 6v72c0 3.324 2.676 6 6 6h72c3.324 0 6-2.676 6-6v-72c0-3.324-2.676-6-6-6h-72zm4 11a64 64 0 0 1 64 64h-12.812a51.2 51.2 0 0 0 -51.188 -51.188v-12.812zm0 21.562a42.423 42.423 0 0 1 42.438 42.438h-12.438a29.989 29.989 0 0 0 -30 -30v-12.438zm8.7812 24.875c4.8475 0 8.7812 3.9338 8.7812 8.7812 0 4.848-3.933 8.782-8.781 8.782-4.847 0-8.781-3.934-8.781-8.781 0-4.8475 3.9338-8.7812 8.7812-8.7812z" clip-path="url(#clipPath3775)" transform="translate(100)"/>
  </g>
  <rect id="rect3003" style="opacity:.15;fill:#fff" transform="translate(98 3.8281e-7)" clip-path="url(#clipPath3009)" rx="25" ry="25" height="92" width="92" y="958.36" x="-96"/>
 </g>
</svg>

<?xml version="1.0" encoding="UTF-8" standalone="no"?>
<!-- Created with Inkscape (http://www.inkscape.org/) -->

<svg
   xmlns:dc="http://purl.org/dc/elements/1.1/"
   xmlns:cc="http://creativecommons.org/ns#"
   xmlns:rdf="http://www.w3.org/1999/02/22-rdf-syntax-ns#"
   xmlns:svg="http://www.w3.org/2000/svg"
   xmlns="http://www.w3.org/2000/svg"
   xmlns:xlink="http://www.w3.org/1999/xlink"
   xmlns:sodipodi="http://sodipodi.sourceforge.net/DTD/sodipodi-0.dtd"
   xmlns:inkscape="http://www.inkscape.org/namespaces/inkscape"
   width="96"
   height="96"
   id="svg11037"
   version="1.1"
   inkscape:version="0.48.3.1 r9886"
   sodipodi:docname="liferea.svg">
  <defs
     id="defs11039">
    <linearGradient
       y2="1046.1001"
       x2="47.999954"
       y1="962.62189"
       x1="47.999954"
       gradientTransform="matrix(1.15,0,0,1.15,-7.1999462,-150.65291)"
       gradientUnits="userSpaceOnUse"
       id="linearGradient3886"
       xlink:href="#linearGradient3795"
       inkscape:collect="always" />
    <linearGradient
       id="linearGradient3795">
      <stop
         style="stop-color:#13a6fd;stop-opacity:1;"
         offset="0"
         id="stop3797" />
      <stop
         style="stop-color:#2975b6;stop-opacity:1;"
         offset="1"
         id="stop3799" />
    </linearGradient>
    <linearGradient
       y2="1046.1001"
       x2="47.999954"
       y1="962.62189"
       x1="47.999954"
       gradientTransform="matrix(1.15,0,0,1.15,-7.1999462,-150.65292)"
       gradientUnits="userSpaceOnUse"
       id="linearGradient11642"
       xlink:href="#linearGradient5801"
       inkscape:collect="always" />
    <linearGradient
       id="linearGradient5801"
       y2="902.35999"
       gradientUnits="userSpaceOnUse"
       x2="48"
       gradientTransform="translate(-113.49153,23.999992)"
       y1="1052.4"
       x1="48">
      <stop
         id="stop2843"
         style="stop-color:#d4530d"
         offset="0" />
      <stop
         id="stop2845"
         style="stop-color:#f7ad25"
         offset="1" />
    </linearGradient>
    <linearGradient
       y2="902.35999"
       x2="48"
       y1="1052.4"
       x1="48"
       gradientTransform="translate(-78.809659,-16.647575)"
       gradientUnits="userSpaceOnUse"
       id="linearGradient3026"
       xlink:href="#linearGradient5801"
       inkscape:collect="always" />
    <clipPath
       id="clipPath3754">
      <path
         inkscape:connector-curvature="0"
         id="path3756"
         style="fill:#ff0000"
         d="m -78,6 c -3.324,0 -6,2.676 -6,6 v 72 c 0,3.324 2.676,6 6,6 h 72 c 3.324,0 6,-2.676 6,-6 V 12 C 0,8.676 -2.676,6 -6,6 h -72 z m 4,10 a 64,64 0 0 1 64,64 H -22.812 A 51.2,51.2 0 0 0 -74,28.812 V 16 z m 0,21.562 A 42.423,42.423 0 0 1 -31.562,80 H -44 A 29.989,29.989 0 0 0 -74,50 V 37.562 z m 8.7812,24.875 c 4.8475,0 8.7812,3.9338 8.7812,8.7812 0,4.848 -3.933,8.782 -8.781,8.782 -4.847,0 -8.781,-3.934 -8.781,-8.781 0,-4.8475 3.9338,-8.7812 8.7812,-8.7812 z" />
    </clipPath>
    <filter
       id="filter3762"
       height="1.24"
       width="1.24"
       y="-0.12"
       x="-0.12"
       color-interpolation-filters="sRGB">
      <feGaussianBlur
         id="feGaussianBlur3764"
         stdDeviation="3.2" />
    </filter>
    <clipPath
       id="clipPath3775">
      <path
         inkscape:connector-curvature="0"
         id="path3777"
         style="fill:#ffffff"
         d="M -84,16 V 28.8 A 51.2,51.2 0 0 1 -32.8,80 H -20 A 64,64 0 0 0 -84,16 z m 0,21.577 V 50.011 A 29.989,29.989 0 0 1 -54.011,80 h 12.434 A 42.423,42.423 0 0 0 -84,37.577 z m 8.7771,24.869 c -4.847,0 -8.777,3.929 -8.777,8.777 0,4.847 3.93,8.777 8.777,8.777 4.8475,0 8.7771,-3.9297 8.7771,-8.7771 0,-4.8475 -3.9297,-8.7771 -8.7771,-8.7771 z" />
    </clipPath>
    <filter
       id="filter3787"
       color-interpolation-filters="sRGB">
      <feGaussianBlur
         id="feGaussianBlur3789"
         stdDeviation="0.42" />
    </filter>
    <clipPath
       clipPathUnits="userSpaceOnUse"
       id="clipPath3009">
      <path
         id="path3011"
         d="m -2,956.36218 -96,0 0,33.5624 96,25.68742 0,-59.24982 z"
         style="opacity:0.15;fill:#ffffff;fill-opacity:1;stroke:none"
         inkscape:connector-curvature="0" />
    </clipPath>
  </defs>
  <sodipodi:namedview
     id="base"
     pagecolor="#ffffff"
     bordercolor="#666666"
     borderopacity="1.0"
     inkscape:pageopacity="0.0"
     inkscape:pageshadow="2"
     inkscape:zoom="3.959798"
     inkscape:cx="33.538031"
     inkscape:cy="59.964634"
     inkscape:document-units="px"
     inkscape:current-layer="layer1"
     showgrid="false"
     inkscape:window-width="1280"
     inkscape:window-height="750"
     inkscape:window-x="0"
     inkscape:window-y="22"
     inkscape:window-maximized="1"
     showguides="true"
     inkscape:guide-bbox="true">
    <sodipodi:guide
       orientation="0,1"
       position="-24.748737,0"
       id="guide11064" />
    <sodipodi:guide
       orientation="0,1"
       position="-23.233509,96"
       id="guide11066" />
    <sodipodi:guide
       orientation="1,0"
       position="0,54.800776"
       id="guide11068" />
    <sodipodi:guide
       orientation="1,0"
       position="96,51.012704"
       id="guide11070" />
    <sodipodi:guide
       orientation="0,1"
       position="-18.94036,48"
       id="guide11072" />
    <sodipodi:guide
       orientation="1,0"
       position="48,79.296975"
       id="guide11074" />
    <sodipodi:guide
       orientation="1,0"
       position="2,75.508903"
       id="guide11076" />
    <sodipodi:guide
       orientation="0,1"
       position="-77.27667,2"
       id="guide11078" />
    <sodipodi:guide
       orientation="1,0"
       position="94,77.781746"
       id="guide11080" />
    <sodipodi:guide
       orientation="0,1"
       position="-65.912454,94"
       id="guide11082" />
  </sodipodi:namedview>
  <metadata
     id="metadata11042">
    <rdf:RDF>
      <cc:Work
         rdf:about="">
        <dc:format>image/svg+xml</dc:format>
        <dc:type
           rdf:resource="http://purl.org/dc/dcmitype/StillImage" />
        <dc:title />
      </cc:Work>
    </rdf:RDF>
  </metadata>
  <g
     inkscape:label="Layer 1"
     inkscape:groupmode="layer"
     id="layer1"
     transform="translate(0,-956.36218)">
    <rect
       x="2"
       y="958.36218"
       width="92"
       height="92"
       style="fill:url(#linearGradient11642);fill-opacity:1.0"
       id="rect3867"
       rx="25"
       ry="25" />
    <g
       id="layer3"
       transform="matrix(0.81905,0,0,0.81905,8.8055001,965.03217)">
      <path
         inkscape:connector-curvature="0"
         id="path3744"
         d="M -74,16 V 28.8 A 51.2,51.2 0 0 1 -22.8,80 H -10 A 64,64 0 0 0 -74,16 z m 0,21.577 V 50.011 A 29.989,29.989 0 0 1 -44.011,80 h 12.434 A 42.423,42.423 0 0 0 -74,37.577 z m 8.7771,24.869 c -4.847,0 -8.777,3.929 -8.777,8.777 0,4.847 3.93,8.777 8.777,8.777 4.8475,0 8.7771,-3.9297 8.7771,-8.7771 0,-4.8475 -3.9297,-8.7771 -8.7771,-8.7771 z"
         style="opacity:0.4;fill:#ffffff;filter:url(#filter3762)"
         transform="translate(90,0)"
         clip-path="url(#clipPath3754)" />
      <path
         inkscape:connector-curvature="0"
         id="circle3643"
         style="fill:#ffffff"
         d="M 16,16 V 28.8 A 51.2,51.2 0 0 1 67.2,80 H 80 A 64,64 0 0 0 16,16 z m 0,21.577 V 50.011 A 29.989,29.989 0 0 1 45.989,80 H 58.423 A 42.423,42.423 0 0 0 16,37.577 z m 8.7771,24.869 c -4.847,0 -8.777,3.929 -8.777,8.777 0,4.847 3.93,8.777 8.777,8.777 4.8475,0 8.7771,-3.9297 8.7771,-8.7771 0,-4.8475 -3.9297,-8.7771 -8.7771,-8.7771 z" />
      <path
         inkscape:connector-curvature="0"
         id="rect3766"
         d="m -88,6 c -3.324,0 -6,2.676 -6,6 v 72 c 0,3.324 2.676,6 6,6 h 72 c 3.324,0 6,-2.676 6,-6 V 12 c 0,-3.324 -2.676,-6 -6,-6 h -72 z m 4,11 a 64,64 0 0 1 64,64 H -32.812 A 51.2,51.2 0 0 0 -84,29.812 V 17 z m 0,21.562 A 42.423,42.423 0 0 1 -41.562,81 H -54 A 29.989,29.989 0 0 0 -84,51 V 38.562 z m 8.7812,24.875 c 4.8475,0 8.7812,3.9338 8.7812,8.7812 0,4.848 -3.933,8.782 -8.781,8.782 -4.847,0 -8.781,-3.934 -8.781,-8.781 0,-4.8475 3.9338,-8.7812 8.7812,-8.7812 z"
         style="opacity:0.8;filter:url(#filter3787)"
         transform="translate(100,0)"
         clip-path="url(#clipPath3775)" />
    </g>
    <rect
       ry="25"
       rx="25"
       id="rect3003"
       style="opacity:0.15;fill:#ffffff;fill-opacity:1"
       height="92"
       width="92"
       y="958.36218"
       x="-96"
       clip-path="url(#clipPath3009)"
       transform="translate(98,3.8281269e-7)" />
  </g>
</svg>
